logos/codersrank.svg

<?xml version="1.0" encoding="UTF-8"?>
<svg width="512px" height="78px" viewBox="0 0 512 78" version="1.1" xmlns="http://www.w3.org/2000/svg" preserveAspectRatio="xMidYMid">
    <title>CodersRank</title>
    <g>
        <path d="M141.610071,54.9461333 C138.620825,51.9491473 136.938766,47.8912496 136.930629,43.6583194 C136.930629,39.4472186 138.609513,35.3988465 141.610071,32.3724899 C143.133371,30.9170605 144.930332,29.7783566 146.896769,29.0226605 C148.874518,28.2618047 150.982053,27.8956651 153.100304,27.9450791 C156.42116,27.8653023 159.688434,28.7914667 162.473079,30.6023194 C165.192434,32.3790388 167.220192,35.034493 168.218195,38.1255442 L158.998226,38.1255442 C158.485829,37.0632434 157.669408,36.1769674 156.652552,35.5794357 C155.625377,34.9741643 154.444403,34.6796651 153.25311,34.7320558 C152.108254,34.6695442 150.963002,34.8479504 149.891374,35.2559628 C148.825898,35.6602047 147.858456,36.2865116 147.053544,37.0936062 C145.600099,38.9171597 144.807491,41.1794853 144.80511,43.5114667 C144.80511,45.8333271 145.596924,48.0936682 147.055529,49.9293271 C147.855281,50.7330481 148.82173,51.3581643 149.893358,51.7669705 C150.964391,52.174586 152.109048,52.3531907 153.25311,52.2908775 C154.416025,52.3682729 155.574971,52.1182264 156.595002,51.5685209 C157.608285,51.0239752 158.442964,50.1984248 158.998226,49.1910946 L168.069358,49.1910946 C167.071553,52.2827411 165.043795,54.9387907 162.324242,56.7163039 C159.539398,58.5263628 156.272124,59.4519318 152.951467,59.3715597 C150.858617,59.4015256 148.779659,59.0262574 146.829296,58.2661953 C144.890047,57.511293 143.117495,56.3833054 141.612056,54.9461333 L141.610071,54.9461333 Z M175.929947,54.9461333 C172.940105,51.9493457 171.257054,47.8914481 171.248521,43.6583194 C171.248521,39.4472186 172.927405,35.3988465 175.929947,32.3724899 C179.070611,29.5082667 183.169786,27.9236465 187.42018,27.9311608 C191.686847,27.9311608 195.796738,29.5187845 198.910016,32.3724899 C201.898667,35.3688806 203.581519,39.4259845 203.589457,43.6583194 C203.581519,47.8914481 201.898667,51.9493457 198.908031,54.9461333 C195.784831,57.8438946 191.679107,59.4507411 187.418195,59.4430294 C183.157482,59.4507411 179.051758,57.8438946 175.927963,54.9461333 L175.929947,54.9461333 Z M193.46694,50.0761798 C194.920781,48.2534202 195.713985,45.9916899 195.717358,43.6603039 C195.717358,41.3384434 194.92356,39.0800868 193.46694,37.2424434 C191.83866,35.6856062 189.671194,34.8187783 187.418195,34.8233247 C185.15587,34.8233247 182.984831,35.6925519 181.371436,37.2444279 C179.917792,39.0671876 179.124391,41.3287194 179.121017,43.6603039 C179.121017,45.9841488 179.912831,48.2425054 181.371436,50.0781643 C182.999516,51.6344062 185.165991,52.5012341 187.418195,52.4972787 C189.680521,52.4972787 191.853544,51.6280558 193.46694,50.0781643 L193.46694,50.0761798 Z M219.469395,28.3876217 C223.992062,28.2149705 228.413519,29.7412465 231.866543,32.6661953 C233.388651,34.0902698 234.603163,35.8094388 235.438636,37.7187225 C236.266171,39.6153054 236.694822,41.6623132 236.694822,43.7317457 C236.694822,45.8011783 236.266171,47.848186 235.438636,49.744769 C234.603163,51.6540527 233.388651,53.3732217 231.866543,54.7972961 C228.421457,57.7353426 223.994047,59.2636031 219.469395,59.0758698 L208.433612,59.0758698 L208.433612,28.3876217 L219.469395,28.3876217 Z M215.992558,53.4716527 L219.469395,53.4716527 C220.755349,53.5452775 222.043287,53.3458357 223.245891,52.8862264 C224.442543,52.4311814 225.526078,51.7245023 226.425054,50.8144124 C227.302202,49.8636403 227.980899,48.7475597 228.423442,47.5314605 C228.864,46.3155597 229.058481,45.0238512 228.994977,43.7317457 C229.058481,42.4400372 228.864,41.1485271 228.423442,39.9330233 C227.980899,38.7173209 227.302202,37.6016372 226.425054,36.6510636 C225.526078,35.7407752 224.442543,35.0342946 223.245891,34.5792496 C222.043287,34.1202357 220.755349,33.9213891 219.469395,33.9958078 L215.992558,33.9958078 L215.992558,53.4696682 L215.992558,53.4716527 Z M260.59014,28.240769 L260.59014,33.9958078 L249.250729,33.9958078 L249.250729,40.6339473 L259.379597,40.6339473 L259.379597,46.388986 L249.252713,46.388986 L249.252713,53.4696682 L260.592124,53.4696682 L260.592124,59.224707 L241.542946,59.224707 L241.542946,28.240769 L260.59014,28.240769 Z M274.951938,47.1252341 L274.951938,59.0758698 L267.242171,59.0758698 L267.242171,28.3876217 L279.639318,28.3876217 C282.713302,28.2286636 285.733705,29.229445 288.105178,31.1917147 C289.069643,32.0212341 289.839628,33.0432496 290.36155,34.1883039 C290.883473,35.3353426 291.145426,36.5776372 291.12955,37.8318388 C291.093829,39.6788093 290.514357,41.4741829 289.466543,42.9954977 C288.150822,44.8059535 286.211969,46.0665054 284.02307,46.5358388 L291.732837,59.0778543 L282.965333,59.0778543 L275.860837,47.1252341 L274.951938,47.1252341 Z M274.951938,33.9958078 L274.951938,41.3721798 L279.639318,41.3721798 C280.141395,41.3920248 280.641488,41.312645 281.111814,41.1340403 C281.580155,40.9554357 282.004837,40.6855442 282.362047,40.3402419 C282.709333,39.9870016 282.981209,39.5702574 283.163783,39.1158078 C283.344372,38.6593736 283.43169,38.1731721 283.417798,37.6830016 C283.43169,37.1938233 283.344372,36.7070264 283.163783,36.2521798 C282.981209,35.7943566 282.707349,35.3778109 282.360062,35.0277457 C282.002853,34.6802605 281.576186,34.4099721 281.109829,34.2339473 C280.641488,34.055938 280.141395,33.9749705 279.639318,33.9958078 L274.951938,33.9958078 Z M307.91045,33.8469705 C307.04124,33.799938 306.183938,34.0614946 305.489364,34.5852031 C305.173829,34.8590636 304.925767,35.2023814 304.768992,35.5873736 C304.610233,35.9703814 304.548713,36.3851411 304.584434,36.7979163 C304.578481,37.2089054 304.655876,37.6171163 304.810667,37.9973457 C304.967442,38.3777736 305.197643,38.7224806 305.491349,39.0106295 C306.126388,39.6258233 306.90431,40.0802729 307.759628,40.3402419 L310.782016,41.2233426 L314.108031,42.2552806 L317.132403,43.7317457 C318.098853,44.360831 318.880744,45.2260713 319.400682,46.2401488 C320.015876,47.4308465 320.325457,48.7445829 320.307597,50.0761798 C320.29569,51.3579659 319.990078,52.619907 319.414574,53.7653581 C318.835101,54.9191442 318.003597,55.9276651 316.981581,56.7163039 C314.548589,58.6744062 311.482543,59.6714171 308.362915,59.5184124 C305.290915,59.6745922 302.25662,58.7916899 299.746233,57.0119938 C298.662698,56.178307 297.793488,55.0979473 297.210047,53.860614 C296.632558,52.6334016 296.362667,51.2843411 296.420217,49.9293271 L304.584434,49.9293271 C304.56062,50.4314047 304.647938,50.9354667 304.83845,51.4018233 C305.030946,51.8701643 305.322667,52.292862 305.693767,52.6421333 C306.070822,52.9912062 306.515349,53.2581209 307.00155,53.4262078 C307.487752,53.5942946 308.001736,53.6597829 308.513736,53.6185054 C309.456372,53.6581953 310.379163,53.340676 311.085643,52.7314357 C311.395225,52.4549953 311.637333,52.1122729 311.794109,51.7290667 C311.950884,51.3458605 312.018357,50.932093 311.992558,50.5187225 C312.008434,50.1065426 311.935008,49.6957519 311.780217,49.3139349 C311.623442,48.9323163 311.387287,48.5886016 311.085643,48.3060093 C310.438698,47.6991504 309.664744,47.2454946 308.817364,46.9783814 L305.792992,46.0932961 L302.466977,45.0613581 L299.444589,43.584893 C298.472186,42.9732713 297.68831,42.1052527 297.17631,41.0764899 C296.684155,39.9123845 296.475783,38.6476651 296.571039,37.3873116 C296.525395,36.0549209 296.80124,34.7310636 297.378729,33.5294512 C297.962171,32.3181147 298.827411,31.2637519 299.899039,30.4534822 C302.284403,28.6410419 305.219473,27.7035659 308.214078,27.7982264 C311.099535,27.6672496 313.95324,28.4408062 316.37631,30.0109395 C317.461829,30.8446264 318.331039,31.924986 318.912496,33.1623194 C319.491969,34.392707 319.76186,35.7401798 319.702326,37.0916217 L311.387287,37.0916217 C311.331721,36.1597023 310.958636,35.275014 310.32955,34.5852031 C309.99814,34.3038016 309.611163,34.0932465 309.196403,33.9662388 C308.779659,33.839231 308.341085,33.7987473 307.908465,33.8469705 L307.91045,33.8469705 Z M333.913302,47.1252341 L333.913302,59.0758698 L326.203535,59.0758698 L326.203535,28.3876217 L338.600682,28.3876217 C341.674667,28.2286636 344.69507,29.229445 347.066543,31.1917147 C348.031008,32.0212341 348.800992,33.0432496 349.322915,34.1883039 C349.844837,35.3353426 350.106791,36.5776372 350.090915,37.8318388 C350.055194,39.6788093 349.475721,41.4741829 348.427907,42.9954977 C347.112186,44.8059535 345.173333,46.0665054 342.984434,46.5358388 L350.694202,59.0778543 L341.928682,59.0778543 L334.824186,47.1252341 L333.915287,47.1252341 L333.913302,47.1252341 Z M333.913302,33.9958078 L333.913302,41.3721798 L338.600682,41.3721798 C339.10276,41.3920248 339.602853,41.312645 340.073178,41.1340403 C340.541519,40.9554357 340.966202,40.6855442 341.323411,40.3402419 C341.670698,39.9870016 341.942574,39.5702574 342.125147,39.1158078 C342.305736,38.6593736 342.393054,38.1731721 342.379163,37.6830016 C342.393054,37.1938233 342.305736,36.7070264 342.125147,36.2521798 C341.942574,35.7943566 341.668713,35.3778109 341.321426,35.0277457 C340.964217,34.6802605 340.53755,34.4099721 340.071194,34.2339473 C339.602853,34.055938 339.10276,33.9749705 338.600682,33.9958078 L333.913302,33.9958078 Z M376.244589,59.0758698 L374.43076,53.9122109 L363.091349,53.9122109 L361.277519,59.0758698 L353.113302,59.0758698 L363.998264,28.240769 L373.371039,28.240769 L384.256,59.0758698 L376.244589,59.0758698 Z M365.056,48.1591566 L372.464124,48.1591566 L368.836465,37.3873116 L365.056,48.1591566 Z M408.750636,28.240769 L416.460403,28.240769 L416.460403,59.0758698 L408.750636,59.0758698 L395.899039,39.6020093 L395.899039,59.0758698 L388.189271,59.0758698 L388.189271,28.240769 L395.899039,28.240769 L408.750636,47.716614 L408.750636,28.240769 Z M430.820217,59.0758698 L423.11045,59.0758698 L423.11045,28.3876217 L430.820217,28.3876217 L430.820217,41.8147225 L441.252713,28.3876217 L451.381581,28.3876217 L438.379163,43.7317457 L451.381581,59.0758698 L441.554357,59.0758698 L430.971039,45.5019163 L430.820217,59.0758698 Z M462.115721,55.092986 C462.085953,56.0124031 461.734698,56.8923287 461.123473,57.5795597 C460.50431,58.2755225 459.666853,58.740093 458.748031,58.8972651 C457.82524,59.0576124 456.874667,58.9024248 456.051101,58.456707 C455.237457,58.0167442 454.59845,57.308676 454.245209,56.4523659 C453.897922,55.6047876 453.860217,54.661755 454.138047,53.7891721 C454.41786,52.9159938 454.997333,52.1618853 455.779225,51.6538543 C456.565085,51.1478078 457.497798,50.9207814 458.426543,51.0094884 C459.357271,51.0979969 460.23045,51.4968806 460.905178,52.1420403 C461.304062,52.5270326 461.617612,52.9874357 461.825984,53.4954667 C462.034357,54.0034977 462.131597,54.5472496 462.115721,55.092986 Z" fill="#19223C"></path>
        <path d="M466.953922,59.0756713 L466.953922,28.3874233 L474.66369,28.3874233 L474.66369,59.0756713 L466.953922,59.0756713 Z M484.340093,54.9459349 C481.351442,51.9489488 479.668589,47.8910512 479.660651,43.6581209 C479.660651,39.4470202 481.339535,35.3986481 484.340093,32.3722915 C487.48155,29.5080682 491.579535,27.9236465 495.830326,27.9309637 C500.098977,27.9309637 504.208868,29.518586 507.320558,32.3722915 C510.309209,35.3688806 511.992062,39.425786 512,43.6581209 C511.992062,47.8910512 510.311194,51.9489488 507.320558,54.9459349 C504.196961,57.8436961 500.091039,59.4505426 495.830326,59.4428309 C491.569612,59.4505426 487.46369,57.8436961 484.340093,54.9459349 Z M501.877085,50.0759814 C503.331721,48.2532217 504.125519,45.9916899 504.127504,43.6601054 C504.127504,41.338245 503.33569,39.0798884 501.877085,37.242245 C500.249798,35.6858047 498.082729,34.8191752 495.830326,34.8231306 C493.568,34.8231306 491.394977,35.6923535 489.783566,37.2442295 C488.330915,39.0669891 487.537116,41.3285209 487.533147,43.6601054 C487.533147,45.9839504 488.324961,48.242307 489.783566,50.0779659 C491.412837,51.6344062 493.577922,52.5010357 495.830326,52.4970802 C498.092651,52.4970802 500.265674,51.6278574 501.877085,50.0779659 L501.877085,50.0759814 Z" fill="#67A4AC"></path>
        <path d="M65.984893,0.108395958 L4.26114978,38.9647876 C1.35386891,40.7230512 -0.0670295236,42.6916713 0.00242782094,44.8726326 L0.00242782094,50.786431 C0.0718852051,52.9693767 1.52652007,54.9042605 4.36831257,56.5930667 L34.9156217,74.2253147 C35.0970047,74.3314853 35.2994233,74.3967752 35.5087876,74.4164217 C35.7179535,74.4360682 35.9289054,74.4096744 36.1269581,74.3390264 C36.3248124,74.2685767 36.5050047,74.1556589 36.6548341,74.0080124 C36.8044651,73.8605643 36.9199628,73.6821581 36.9933892,73.4850977 L43.8518078,56.910586 L29.3054512,48.6749271 C28.8861271,48.4574264 28.5336806,48.1303814 28.2854202,47.7283225 C28.0994729,47.4262822 27.9756403,47.0901085 27.9210667,46.7396465 C27.8662946,46.3891845 27.8821706,46.0313798 27.9673054,45.6870698 C28.0524403,45.3425612 28.2052465,45.0186915 28.4169923,44.7341147 C28.628738,44.449538 28.8950574,44.2098109 29.2002729,44.0292217 L55.9056372,27.6630822 L66.9176062,0.848612218 C66.961662,0.723021397 66.965631,0.586849242 66.9291163,0.458884963 C66.8926016,0.330922668 66.8169923,0.217474978 66.7132031,0.134194408 C66.6100093,0.0519392262 66.4832,0.00502688887 66.3514295,0 C66.2194605,-0.00426368849 66.0896744,0.0336040696 65.980924,0.108395958 L65.984893,0.108395958 Z" fill="#19223C"></path>
        <path d="M116.688769,21.7532527 L86.5601488,3.48802977 C86.3855132,3.37910078 86.189445,3.3088893 85.9854388,3.28209861 C85.7812341,3.25532775 85.5736558,3.27261271 85.3767938,3.33278264 C85.1799318,3.39295256 84.9983504,3.49463814 84.8439566,3.63095318 C84.6897612,3.76728806 84.566524,3.93507721 84.4823814,4.12306853 L77.4175752,20.6975008 L91.7555597,29.2506791 C92.1683349,29.4749271 92.5116527,29.810307 92.7517768,30.2191132 C92.9924961,30.6293085 93.1193054,31.0962605 93.1193054,31.5715473 C93.1193054,32.0470326 92.9924961,32.5139845 92.7517768,32.9239814 C92.5138357,33.3321922 92.1695256,33.6683659 91.7555597,33.8963845 L64.8438078,49.7326636 L53.4131101,76.3388031 C53.3025737,76.4652155 53.2458171,76.6301271 53.2555411,76.7980155 C53.2652651,76.9657054 53.3402791,77.1228775 53.464707,77.2357953 C53.5258295,77.2913612 53.5972713,77.3338295 53.6748651,77.361414 C53.7526574,77.3888 53.835014,77.4005085 53.9171721,77.3955473 C53.9995287,77.3907845 54.0799008,77.3697488 54.1539225,77.3334326 C54.2277457,77.2971163 54.2938295,77.2463132 54.3478078,77.1841984 L74.0915597,65.2534078 L81.884676,76.4459659 C82.0551442,76.7039504 82.286338,76.9156961 82.5580155,77.0627473 C82.8298915,77.2099969 83.1335194,77.2877891 83.4425054,77.2893767 L102.146381,77.2893767 C102.487516,77.2905674 102.822301,77.1972961 103.113625,77.0200806 C103.404949,76.8428651 103.641699,76.5886512 103.797482,76.2852217 C103.957829,75.9811969 104.033637,75.6396651 104.017364,75.2961488 C104.000893,74.952831 103.892738,74.620031 103.704211,74.3324775 L91.0272496,54.9042605 L116.692738,39.3855008 C119.602009,37.6252527 121.056645,35.6546481 121.056645,33.4717023 L121.056645,27.6650667 C121.056645,25.4821209 119.602009,23.5135008 116.690753,21.7532527 L116.688769,21.7532527 Z" fill="#67A4AC"></path>
    </g>
</svg>

<svg preserveAspectRatio="xMidYMid" viewBox="0 0 512 78" xmlns="http://www.w3.org/2000/svg">
  <path fill="#19223C" d="M141.61 54.946a16.028 16.028 0 0 1-4.68-11.288c0-4.21 1.68-8.26 4.68-11.286a15.92 15.92 0 0 1 5.287-3.35 16.224 16.224 0 0 1 6.203-1.077c3.321-.08 6.588.846 9.373 2.657a14.197 14.197 0 0 1 5.745 7.524h-9.22a5.953 5.953 0 0 0-2.345-2.547 6.163 6.163 0 0 0-3.4-.847 8.192 8.192 0 0 0-3.362.524 8.031 8.031 0 0 0-2.837 1.838 10.314 10.314 0 0 0-2.249 6.417c0 2.322.792 4.583 2.25 6.418a8.04 8.04 0 0 0 2.838 1.838 8.193 8.193 0 0 0 3.36.524 6.18 6.18 0 0 0 3.342-.722 5.972 5.972 0 0 0 2.403-2.378h9.071a14.2 14.2 0 0 1-5.745 7.525 16.468 16.468 0 0 1-9.373 2.656 16.221 16.221 0 0 1-6.122-1.106 15.918 15.918 0 0 1-5.217-3.32h-.002Zm34.32 0a16.028 16.028 0 0 1-4.681-11.288c0-4.21 1.678-8.26 4.68-11.286a17.007 17.007 0 0 1 11.491-4.44c4.267 0 8.377 1.587 11.49 4.44a16.025 16.025 0 0 1 4.68 11.286 16.022 16.022 0 0 1-4.682 11.288 16.848 16.848 0 0 1-11.49 4.497 16.85 16.85 0 0 1-11.49-4.497h.002Zm17.537-4.87a10.313 10.313 0 0 0 2.25-6.416c0-2.322-.793-4.58-2.25-6.418a8.727 8.727 0 0 0-6.049-2.419 8.73 8.73 0 0 0-6.047 2.421 10.314 10.314 0 0 0-2.25 6.416c0 2.324.792 4.583 2.25 6.418a8.729 8.729 0 0 0 6.047 2.42c2.263 0 4.436-.87 6.049-2.42v-.002Zm26.002-21.688a18.11 18.11 0 0 1 12.398 4.278 15.337 15.337 0 0 1 3.572 5.053 15.037 15.037 0 0 1 1.256 6.013c0 2.07-.429 4.116-1.256 6.013a15.337 15.337 0 0 1-3.572 5.052 17.957 17.957 0 0 1-12.398 4.279h-11.035V28.388h11.035Zm-3.476 25.084h3.476a9.121 9.121 0 0 0 3.777-.586 8.93 8.93 0 0 0 3.18-2.072 9.765 9.765 0 0 0 1.997-3.283 9.75 9.75 0 0 0 .572-3.8 9.745 9.745 0 0 0-.572-3.798 9.763 9.763 0 0 0-1.998-3.282 8.926 8.926 0 0 0-3.18-2.072 9.117 9.117 0 0 0-3.776-.583h-3.476v19.476ZM260.59 28.24v5.755h-11.34v6.638h10.13v5.755h-10.127v7.08h11.34v5.756h-19.05V28.24h19.047Zm14.362 18.884v11.95h-7.71V28.389h12.397a12.283 12.283 0 0 1 8.466 2.804 8.734 8.734 0 0 1 2.257 2.996 8.531 8.531 0 0 1 .768 3.644 9.426 9.426 0 0 1-1.663 5.163 9.083 9.083 0 0 1-5.444 3.54l7.71 12.543h-8.768l-7.104-11.953h-.91Zm0-13.13v7.377h4.687a3.687 3.687 0 0 0 2.723-1.032 3.625 3.625 0 0 0 1.056-2.657 3.601 3.601 0 0 0-.254-1.43 3.67 3.67 0 0 0-.804-1.225 3.705 3.705 0 0 0-2.72-1.032h-4.688Zm32.958-.148a3.69 3.69 0 0 0-2.42.738 2.657 2.657 0 0 0-.721 1.002c-.159.383-.22.798-.185 1.21a3.039 3.039 0 0 0 .907 2.213 5.593 5.593 0 0 0 2.269 1.33l3.022.883 3.326 1.032 3.024 1.477a6.579 6.579 0 0 1 2.269 2.508 8.108 8.108 0 0 1 .907 3.836 8.391 8.391 0 0 1-.893 3.69 8.606 8.606 0 0 1-2.433 2.95 12.749 12.749 0 0 1-8.62 2.802 13.695 13.695 0 0 1-8.616-2.506 8.608 8.608 0 0 1-2.536-3.151 8.395 8.395 0 0 1-.79-3.932h8.164a3.466 3.466 0 0 0 .254 1.473 3.566 3.566 0 0 0 2.164 2.024c.486.168 1 .234 1.512.193a3.703 3.703 0 0 0 2.572-.888 2.73 2.73 0 0 0 .907-2.212 2.88 2.88 0 0 0-.907-2.213 5.911 5.911 0 0 0-2.269-1.328l-3.024-.885-3.326-1.032-3.022-1.476a6.253 6.253 0 0 1-2.269-2.509 7.938 7.938 0 0 1-.605-3.689 8.253 8.253 0 0 1 .808-3.858 8.461 8.461 0 0 1 2.52-3.076 13.06 13.06 0 0 1 8.315-2.655c2.886-.13 5.74.643 8.162 2.213a8.568 8.568 0 0 1 2.536 3.151c.58 1.23.85 2.578.79 3.93h-8.315a4.08 4.08 0 0 0-1.057-2.507 3.2 3.2 0 0 0-2.422-.738h.002Zm26.003 13.278v11.95h-7.71V28.389h12.398a12.283 12.283 0 0 1 8.466 2.804 8.734 8.734 0 0 1 2.256 2.996 8.531 8.531 0 0 1 .768 3.644 9.426 9.426 0 0 1-1.663 5.163 9.083 9.083 0 0 1-5.444 3.54l7.71 12.543h-8.765l-7.105-11.953h-.911Zm0-13.13v7.377h4.688a3.687 3.687 0 0 0 2.723-1.032 3.625 3.625 0 0 0 1.055-2.657 3.601 3.601 0 0 0-.254-1.43 3.67 3.67 0 0 0-.804-1.225 3.705 3.705 0 0 0-2.72-1.032h-4.688Zm42.332 25.08-1.814-5.163h-11.34l-1.813 5.164h-8.165l10.885-30.835h9.373l10.885 30.835h-8.011ZM365.056 48.16h7.408l-3.628-10.772-3.78 10.772Zm43.695-19.918h7.71v30.835h-7.71l-12.852-19.474v19.474h-7.71V28.24h7.71l12.852 19.476V28.24Zm22.07 30.835h-7.71V28.388h7.71v13.427l10.432-13.427h10.129l-13.003 15.344 13.003 15.344h-9.828l-10.583-13.574-.15 13.574Zm31.295-3.983a3.93 3.93 0 0 1-.993 2.487 4.105 4.105 0 0 1-2.375 1.317 4.168 4.168 0 0 1-2.697-.44 4.025 4.025 0 0 1-1.806-2.005 3.902 3.902 0 0 1-.107-2.663c.28-.873.86-1.627 1.641-2.135a4.16 4.16 0 0 1 5.126.488c.4.385.713.845.921 1.353.208.508.306 1.052.29 1.598Z"/>
  <path fill="#67A4AC" d="M466.954 59.076V28.387h7.71v30.689h-7.71Zm17.386-4.13a16.03 16.03 0 0 1-4.68-11.288c0-4.211 1.68-8.26 4.68-11.286a17.01 17.01 0 0 1 11.49-4.441c4.269 0 8.379 1.588 11.49 4.441A16.025 16.025 0 0 1 512 43.658a16.02 16.02 0 0 1-4.68 11.288 16.85 16.85 0 0 1-11.49 4.497 16.85 16.85 0 0 1-11.49-4.497Zm17.537-4.87a10.3 10.3 0 0 0 2.25-6.416c0-2.322-.791-4.58-2.25-6.418a8.726 8.726 0 0 0-6.047-2.419 8.72 8.72 0 0 0-6.046 2.421 10.324 10.324 0 0 0-2.25 6.416c0 2.324.791 4.582 2.25 6.418a8.73 8.73 0 0 0 6.046 2.42c2.263 0 4.436-.87 6.047-2.42v-.002Z"/>
  <path fill="#19223C" d="M65.985.108 4.26 38.965C1.354 40.723-.067 42.692.002 44.873v5.913c.07 2.183 1.525 4.118 4.366 5.807l30.548 17.632a1.44 1.44 0 0 0 2.077-.74l6.859-16.574-14.547-8.236a2.612 2.612 0 0 1-1.02-.947 2.67 2.67 0 0 1 .915-3.699l26.706-16.366L66.918.85a.644.644 0 0 0-.205-.715.618.618 0 0 0-.732-.026h.004Z"/>
  <path fill="#67A4AC" d="M116.689 21.753 86.56 3.488a1.44 1.44 0 0 0-2.078.635l-7.064 16.575 14.338 8.553a2.6 2.6 0 0 1 .996.968 2.672 2.672 0 0 1 0 2.705 2.612 2.612 0 0 1-.996.972L64.844 49.733l-11.43 26.606a.641.641 0 0 0 .26 1.022.618.618 0 0 0 .674-.177l19.744-11.93 7.793 11.192a1.879 1.879 0 0 0 1.558.843h18.703a1.849 1.849 0 0 0 1.651-1.004 1.925 1.925 0 0 0-.093-1.953L91.027 54.904l25.666-15.518c2.909-1.76 4.364-3.731 4.364-5.914v-5.807c0-2.183-1.455-4.151-4.366-5.912h-.002Z"/>
</svg>
